svg/copper1oxide.svg

<?xml version="1.0" encoding="UTF-8" standalone="no"?>
<!-- Created with Inkscape (http://www.inkscape.org/) -->

<svg
   width="32"
   height="32"
   viewBox="0 0 8.4666666 8.4666668"
   version="1.1"
   id="svg5"
   inkscape:version="1.2 (dc2aeda, 2022-05-15)"
   sodipodi:docname="copperOxide.svg"
   xmlns:inkscape="http://www.inkscape.org/namespaces/inkscape"
   xmlns:sodipodi="http://sodipodi.sourceforge.net/DTD/sodipodi-0.dtd"
   xmlns="http://www.w3.org/2000/svg"
   xmlns:svg="http://www.w3.org/2000/svg"
   xmlns:rdf="http://www.w3.org/1999/02/22-rdf-syntax-ns#"
   xmlns:cc="http://creativecommons.org/ns#">
  <sodipodi:namedview
     id="namedview7"
     pagecolor="#ffffff"
     bordercolor="#111111"
     borderopacity="1"
     inkscape:pageshadow="0"
     inkscape:pageopacity="0"
     inkscape:pagecheckerboard="1"
     inkscape:document-units="mm"
     showgrid="true"
     width="32mm"
     units="px"
     objecttolerance="10000"
     guidetolerance="10000"
     inkscape:snap-perpendicular="true"
     inkscape:snap-tangential="true"
     inkscape:zoom="34.90625"
     inkscape:cx="11.631155"
     inkscape:cy="16.028648"
     inkscape:window-width="2560"
     inkscape:window-height="1301"
     inkscape:window-x="-1"
     inkscape:window-y="26"
     inkscape:window-maximized="0"
     inkscape:current-layer="layer1"
     gridtolerance="10000"
     inkscape:showpageshadow="0"
     inkscape:deskcolor="#d1d1d1">
    <inkscape:grid
       type="xygrid"
       id="grid9"
       units="px"
       empspacing="2" />
  </sodipodi:namedview>
  <defs
     id="defs2" />
  <g
     inkscape:label="Layer 1"
     inkscape:groupmode="layer"
     id="layer1">
    <path
       id="path10547"
       style="fill:#000000;fill-opacity:1;stroke:none;stroke-width:0.264583"
       d="M 1.3229167 2.6458333 A 1.0583333 1.5875 0 0 0 0.26458333 4.2333333 A 1.0583333 1.5875 0 0 0 1.3229167 5.8208333 A 1.0583333 1.5875 0 0 0 2.238623 5.0270833 L 1.6722493 5.0270833 A 0.52916663 1.0583333 0 0 1 1.3229167 5.2916667 A 0.52916663 1.0583333 0 0 1 0.79375 4.2333333 A 0.52916663 1.0583333 0 0 1 1.3229167 3.175 A 0.52916663 1.0583333 0 0 1 1.6727661 3.4395833 L 2.2396566 3.4395833 A 1.0583333 1.5875 0 0 0 1.3229167 2.6458333 z " />
    <path
       id="path10943"
       style="fill:#000000;fill-opacity:1;stroke:none;stroke-width:0.264583"
       d="M 4.4979167 4.2333333 L 4.4979167 4.7625 L 5.0270833 4.7625 C 5.1732085 4.7625 5.2916667 4.8809583 5.2916667 5.0270833 C 5.2916667 5.1732084 5.1732084 5.2916667 5.0270833 5.2916667 A 0.52916664 0.52916664 0 0 0 4.4979167 5.8208333 L 4.4979167 6.8791667 L 5.0270833 6.8791667 L 5.8208333 6.8791667 L 5.8208333 6.35 L 5.0270833 6.35 L 5.0270833 6.0854167 A 0.26458329 0.26458334 0 0 1 5.0276001 6.0719808 C 5.0276176 6.0716359 5.0275813 6.0712918 5.0276001 6.0709473 A 0.26458329 0.26458334 0 0 1 5.0286336 6.0585449 C 5.0286851 6.0580385 5.0285793 6.0575002 5.0286336 6.0569946 A 0.26458329 0.26458334 0 0 1 5.0296672 6.0502767 C 5.0300103 6.0476983 5.0302839 6.0450796 5.0307007 6.0425252 A 0.26458329 0.26458334 0 0 1 5.0332845 6.0285726 A 0.26458329 0.26458334 0 0 1 5.0369019 6.01462 A 0.26458329 0.26458334 0 0 1 5.0389689 6.0068685 C 5.0395648 6.0049526 5.040398 6.003081 5.041036 6.0011841 A 0.26458329 0.26458334 0 0 1 5.043103 5.9944661 C 5.0434825 5.9934298 5.0437445 5.9923958 5.0441366 5.9913656 A 0.26458329 0.26458334 0 0 1 5.0477539 5.9825806 C 5.0489193 5.9798253 5.0501161 5.977019 5.0513713 5.9743123 A 0.26458329 0.26458334 0 0 1 5.0529215 5.970695 C 5.0544481 5.967527 5.0564417 5.9644896 5.0580892 5.9613932 A 0.26458329 0.26458334 0 0 1 5.0591227 5.9593262 C 5.0596867 5.958288 5.0600956 5.9572553 5.060673 5.9562256 A 0.26458329 0.26458334 0 0 1 5.0653239 5.9484741 C 5.0676574 5.9446337 5.0700383 5.9408142 5.0725586 5.9371053 A 0.26458329 0.26458334 0 0 1 5.0797933 5.9272868 C 5.0814592 5.9250592 5.0832273 5.9227414 5.0849609 5.9205688 C 5.0866447 5.9184589 5.0883824 5.9164243 5.0901286 5.9143677 A 0.26458329 0.26458334 0 0 1 5.095813 5.9076497 C 5.0961381 5.907292 5.0965195 5.9069721 5.0968465 5.9066162 A 0.26458329 0.26458334 0 0 1 5.104598 5.898348 C 5.1063066 5.8966394 5.108011 5.8948419 5.1097656 5.8931803 A 0.26458329 0.26458334 0 0 1 5.1128662 5.8905965 C 5.1154253 5.888245 5.1179672 5.8861291 5.1206177 5.8838786 A 0.26458329 0.26458334 0 0 1 5.1232015 5.8812948 C 5.1243253 5.8803673 5.1256796 5.8796201 5.1268188 5.8787109 C 5.1289914 5.8769773 5.1313092 5.8752092 5.1335368 5.8735433 C 5.1367423 5.871146 5.1400398 5.8685615 5.1433553 5.8663086 A 0.26458329 0.26458334 0 0 1 5.1438721 5.8657918 C 5.1456085 5.8646187 5.1472743 5.8633071 5.1490397 5.8621745 A 0.26458329 0.26458334 0 0 1 5.1547241 5.8590739 C 5.1549293 5.8589492 5.1550354 5.8586812 5.1552409 5.8585571 A 0.26458329 0.26458334 0 0 1 5.1624756 5.854423 C 5.1641685 5.8534737 5.1659276 5.852752 5.1676432 5.8518392 A 0.26458329 0.26458334 0 0 1 5.176945 5.8466715 C 5.1781158 5.8461074 5.179382 5.8456686 5.1805623 5.8451213 A 0.26458329 0.26458334 0 0 1 5.1888306 5.8415039 C 5.1904068 5.8408372 5.1918898 5.8400737 5.1934814 5.8394368 A 0.26458329 0.26458334 0 0 1 5.1976156 5.8378866 C 5.2008111 5.8366706 5.2041806 5.8358802 5.2074341 5.834786 A 0.26458329 0.26458334 0 0 1 5.2131185 5.8327189 C 5.2156901 5.8319191 5.2182654 5.8313747 5.22087 5.8306519 A 0.26458329 0.26458334 0 0 1 5.2348226 5.8270345 A 0.26458329 0.26458334 0 0 1 5.2487752 5.8244507 A 0.26458329 0.26458334 0 0 1 5.251359 5.8239339 C 5.2530405 5.823677 5.254835 5.8236423 5.2565267 5.8234172 A 0.26458329 0.26458334 0 0 1 5.2916667 5.8208333 C 5.7300417 5.8208333 5.8208333 5.4654585 5.8208333 5.0270833 C 5.8208333 4.5887083 5.4654585 4.2333333 5.0270833 4.2333333 L 4.4979167 4.2333333 z " />
    <path
       id="path920"
       style="fill:#000000;stroke-width:0"
       d="M 2.3812501,3.7041663 V 4.8947912 A 0.92604164,0.9260416 0 0 0 3.3072917,5.8208329 0.92604164,0.9260416 0 0 0 3.8163046,5.6683874 L 3.9687501,5.8208329 H 4.2333334 V 4.8947912 3.7041663 H 3.7041667 v 1.1906249 a 0.39687499,0.39687501 0 0 1 -0.396875,0.396875 0.39687499,0.39687501 0 0 1 -0.396875,-0.396875 V 3.7041663 Z" />
    <path
       id="path948"
       style="fill:#000000;fill-opacity:1;stroke:none;stroke-width:0.264583"
       d="m 7.14375,2.9104167 a 1.0583333,1.5875 0 0 0 -1.0583333,1.5875 1.0583333,1.5875 0 0 0 1.0583333,1.5875 1.0583333,1.5875 0 0 0 1.0583333,-1.5875 1.0583333,1.5875 0 0 0 -1.0583333,-1.5875 z m 0,0.5291667 A 0.52916663,1.0583333 0 0 1 7.6729167,4.4979167 0.52916663,1.0583333 0 0 1 7.14375,5.55625 0.52916663,1.0583333 0 0 1 6.6145834,4.4979167 0.52916663,1.0583333 0 0 1 7.14375,3.4395834 Z" />
  </g>
  <metadata
     id="metadata33">
    <rdf:RDF>
      <cc:Work
         rdf:about="">
        <cc:license
           rdf:resource="http://creativecommons.org/licenses/by-sa/4.0/" />
      </cc:Work>
      <cc:License
         rdf:about="http://creativecommons.org/licenses/by-sa/4.0/">
        <cc:permits
           rdf:resource="http://creativecommons.org/ns#Reproduction" />
        <cc:permits
           rdf:resource="http://creativecommons.org/ns#Distribution" />
        <cc:requires
           rdf:resource="http://creativecommons.org/ns#Notice" />
        <cc:requires
           rdf:resource="http://creativecommons.org/ns#Attribution" />
        <cc:permits
           rdf:resource="http://creativecommons.org/ns#DerivativeWorks" />
        <cc:requires
           rdf:resource="http://creativecommons.org/ns#ShareAlike" />
      </cc:License>
    </rdf:RDF>
  </metadata>
</svg>

<svg width="32" height="32" viewBox="0 0 8.467 8.467" xmlns="http://www.w3.org/2000/svg"><path style="fill:#000;fill-opacity:1;stroke:none;stroke-width:.264583" d="M1.323 2.646A1.058 1.587 0 0 0 .265 4.233a1.058 1.587 0 0 0 1.058 1.588 1.058 1.587 0 0 0 .916-.794h-.567a.53 1.058 0 0 1-.35.265.53 1.058 0 0 1-.528-1.059.53 1.058 0 0 1 .529-1.058.53 1.058 0 0 1 .35.265h.567a1.058 1.587 0 0 0-.917-.794zM4.498 4.233v.53h.53a.265.265 0 0 1 0 .529.53.53 0 0 0-.53.529v1.058H5.82V6.35h-.794v-.265a.265.265 0 0 1 0-.013v-.001a.265.265 0 0 1 .002-.012v-.002a.265.265 0 0 1 0-.007l.002-.007a.265.265 0 0 1 .002-.014.265.265 0 0 1 .004-.014.265.265 0 0 1 .002-.008L5.041 6a.265.265 0 0 1 .002-.007l.001-.003a.265.265 0 0 1 .004-.008.267.267 0 0 1 .003-.009.265.265 0 0 1 .002-.003l.005-.01a.265.265 0 0 1 .001-.002l.002-.003a.265.265 0 0 1 .004-.008.265.265 0 0 1 .008-.01.265.265 0 0 1 .007-.01.275.275 0 0 1 .005-.007l.005-.007a.265.265 0 0 1 .006-.006v-.001a.265.265 0 0 1 .009-.009l.005-.005a.265.265 0 0 1 .003-.002l.008-.007a.265.265 0 0 1 .002-.003l.004-.002a.275.275 0 0 1 .007-.005l.01-.008.005-.004a.265.265 0 0 1 .006-.003.265.265 0 0 1 .007-.005l.006-.002a.265.265 0 0 1 .009-.005l.004-.002a.265.265 0 0 1 .008-.003l.004-.003a.265.265 0 0 1 .005-.001l.01-.003a.265.265 0 0 1 .005-.002l.008-.002a.265.265 0 0 1 .014-.004.265.265 0 0 1 .014-.003.265.265 0 0 1 .002 0h.006a.265.265 0 0 1 .035-.003c.438 0 .529-.356.529-.794a.794.794 0 0 0-.794-.794h-.53z"/><path style="fill:#000;stroke-width:0" d="M2.381 3.704v1.19a.926.926 0 0 0 .926.927.926.926 0 0 0 .51-.153l.152.153h.264V3.705h-.529v1.19a.397.397 0 0 1-.397.397.397.397 0 0 1-.397-.397v-1.19Z"/><path style="fill:#000;fill-opacity:1;stroke:none;stroke-width:.264583" d="M7.144 2.91a1.058 1.587 0 0 0-1.059 1.588 1.058 1.587 0 0 0 1.059 1.587 1.058 1.587 0 0 0 1.058-1.587A1.058 1.587 0 0 0 7.144 2.91zm0 .53a.53 1.058 0 0 1 .529 1.058.53 1.058 0 0 1-.53 1.058.53 1.058 0 0 1-.528-1.058.53 1.058 0 0 1 .529-1.058Z"/></svg>
